symbolic/64x64/apps/qt.svg

<svg xmlns="http://www.w3.org/2000/svg" width="64" height="64" version="1.1">
 <path style="opacity:.2" d="m10.181818 9h48.96104s2.857142 0 2.857142 2.823529v36.705883l-8.181818 8.470588h-48.961039s-2.857143 0-2.857143-2.82353v-36.705882z"/>
 <path style="fill:#00cc5c" d="m10.181818 8.0000002h48.96104s2.857142 0 2.857142 2.8235288v36.705883l-8.181818 8.470588h-48.961039s-2.857143 0-2.857143-2.82353v-36.705882z"/>
 <path style="opacity:.2" d="m 40,20 v 6 h -4 v 3 h 4 v 8.234376 C 40,42.881434 41.998402,45 45.585938,45 H 50 V 41 H 46.03125 C 44.101676,41 44,39.65947 44,36.835938 V 29 h 6 V 26 H 44 V 20 Z M 24.050782,19.04296 C 16.109896,19.042968 14,23.529412 14,32 c 0,8.470588 2.072781,13.054688 10.050782,13.054688 h 2.265624 l 3.300782,5.64453 3.824218,-1.410156 -3.117188,-5.648438 C 33.292774,42.22886 34,37.647058 34,32 34,23.529412 31.991668,19.042968 24.050782,19.042968 Z M 24.015624,23 C 28.859636,23 30.000012,26.51398 30,32.308594 30,38.103206 28.89634,41 24.015624,41 19.134912,41 18,38.103206 18,32.308594 18,26.51398 19.171617,23 24.015624,23 Z"/>
 <path style="fill:#ffffff" d="m 40,19 v 6 h -4 v 3 h 4 v 8.234376 C 40,41.881434 41.998402,44 45.585938,44 H 50 V 40 H 46.03125 C 44.101676,40 44,38.65947 44,35.835938 V 28 h 6 V 25 H 44 V 19 Z M 24.050782,18.04297 C 16.109896,18.042969 14,22.529412 14,31 c 0,8.470588 2.072781,13.054688 10.050782,13.054688 h 2.265624 l 3.300782,5.64453 3.824218,-1.410156 -3.117188,-5.648438 C 33.292774,41.22886 34,36.647058 34,31 34,22.529412 31.991668,18.042969 24.050782,18.042968 Z M 24.015624,22 C 28.859636,22 30.000012,25.51398 30,31.308594 30,37.103206 28.89634,40 24.015624,40 19.134912,40 18,37.103206 18,31.308594 18,25.51398 19.171617,22 24.015624,22 Z"/>
 <path style="fill:#ffffff;opacity:.2" d="m10.183594 8-8.183594 8.46875v1l8.183594-8.46875h48.960937s2.855469 6.894e-4 2.855469 2.824219v-1c0-2.8235296-2.855469-2.824219-2.855469-2.824219h-48.960937z"/>
</svg>

<svg xmlns="http://www.w3.org/2000/svg" width="64" height="64"><path style="opacity:.2" d="M10.182 9h48.96S62 9 62 11.824v36.705L53.818 57H4.858S2 57 2 54.176V17.471z"/><path style="fill:#00cc5c" d="M10.182 8h48.96S62 8 62 10.824v36.705L53.818 56H4.858S2 56 2 53.176V16.471z"/><path style="opacity:.2" d="M40 20v6h-4v3h4v8.234C40 42.881 41.998 45 45.586 45H50v-4h-3.969C44.101 41 44 39.66 44 36.836V29h6v-3h-6v-6zm-15.95-.957C16.11 19.043 14 23.529 14 32c0 8.47 2.073 13.055 10.05 13.055h2.266l3.301 5.644 3.824-1.41-3.117-5.648C33.293 42.229 34 37.647 34 32c0-8.47-2.008-12.957-9.95-12.957zM24.017 23C28.86 23 30 26.514 30 32.309 30 38.103 28.896 41 24.016 41 19.135 41 18 38.103 18 32.309 18 26.514 19.172 23 24.016 23z"/><path style="fill:#fff" d="M40 19v6h-4v3h4v8.234C40 41.881 41.998 44 45.586 44H50v-4h-3.969C44.101 40 44 38.66 44 35.836V28h6v-3h-6v-6zm-15.95-.957C16.11 18.043 14 22.529 14 31c0 8.47 2.073 13.055 10.05 13.055h2.266l3.301 5.644 3.824-1.41-3.117-5.648C33.293 41.229 34 36.647 34 31c0-8.47-2.008-12.957-9.95-12.957zM24.017 22C28.86 22 30 25.514 30 31.309 30 37.103 28.896 40 24.016 40 19.135 40 18 37.103 18 31.309 18 25.514 19.172 22 24.016 22z"/><path style="fill:#fff;opacity:.2" d="M10.184 8 2 16.469v1L10.184 9h48.96S62 9 62 11.824v-1C62 8.001 59.145 8 59.145 8H10.184z"/></svg>
